X: 304
T:Tua est potentia / Yours is the power
N: Derived from Jos2617-Tua_est_potentia.krn
C: Josquin des Prez
%%abc-version 2.0
%%abcx-abcm2ps-target-version 5.9.1 (29 Sep 2008)
%%abc-creator hum2abc beta
%%abcx-conversion-date 2019/02/12 16:15:53
%%abc-edited-by Jesse Rodin
%%abc-edited-by Victoria Chang
%%abcx-initial-encoding-date 2011/03/23/
%%humdrum-veritas 2789710664
%%humdrum-veritas-data 250397416
%%linebreak <none>
%%barnumbers 0
L: 1/4
M: 2/1
Q: 1/2=120
V: 1 clef=treble
V: 2 clef=treble-8
V: 3 clef=treble-8
V: 4 clef=treble-8
V: 5 clef=bass
K: C
[V:1] z8 | 
[V:2] G8 | 
[V:3] z8 | 
[V:4] z8 | 
[V:5] z8 | 
[V:1] z8 | 
[V:2] d8 | 
[V:3] z8 | 
[V:4] z8 | 
[V:5] z8 | 
[V:1] G8 | 
[V:2] e3defg2- | 
[V:3] z8 | 
[V:4] z8 | 
[V:5] z8 | 
[V:1] d8 | 
[V:2] g2fed3e | 
[V:3] z8 | 
[V:4] z8 | 
[V:5] z8 | 
[V:1] d8 | 
[V:2] f2g4f2 | 
[V:3] z8 | 
[V:4] z8 | 
[V:5] z8 | 
[V:1] e8 | 
[V:2] g4G3A | 
[V:3] z8 | 
[V:4] z8 | 
[V:5] C,8 | 
[V:1] z4d4 | 
[V:2] Bcd2G2g2- | 
[V:3] z8 | 
[V:4] z8 | 
[V:5] G,8 | 
[V:1] c6BA | 
[V:2] g2^fe^f4 | 
[V:3] z8 | 
[V:4] z8 | 
[V:5] A,8 | 
[V:1] B3cd4- | 
[V:2] g2G2B3c | 
[V:3] z8 | 
[V:4] z8 | 
[V:5] z4G,4 | 
[V:1] d2cBc4 | 
[V:2] d2e4dc | 
[V:3] z8 | 
[V:4] z8 | 
[V:5] F,2G,2A,4 | 
[V:1] d8 | 
[V:2] B4d4 | 
[V:3] z8 | 
[V:4] z8 | 
[V:5] G,4G,4 | 
[V:1] A4c4 | 
[V:2] f4e4- | 
[V:3] c8 | 
[V:4] z8 | 
[V:5] F,2G,2A,4 | 
[V:1] B3cd4 | 
[V:2] e4d4- | 
[V:3] g8 | 
[V:4] G8 | 
[V:5] G,8- | 
[V:1] z4D4 | 
[V:2] d2c2B4 | 
[V:3] g8 | 
[V:4] d8 | 
[V:5] G,8 | 
[V:1] F4F2F2 | 
[V:2] A8 | 
[V:3] a8 | 
[V:4] d8 | 
[V:5] D,4F,4 | 
[V:1] G4E4 | 
[V:2] B4c4 | 
[V:3] z4g4 | 
[V:4] e8 | 
[V:5] E,4C,4 | 
[V:1] D4z4 | 
[V:2] A8 | 
[V:3] f6ed | 
[V:4] z4d4 | 
[V:5] D,6D,2 | 
[V:1] z8 | 
[V:2] z4G4- | 
[V:3] e2f2g4- | 
[V:4] c6BA | 
[V:5] A,,4E,4- | 
[V:1] z8 | 
[V:2] G4A4- | 
[V:3] g2fef4 | 
[V:4] B2c2d4- | 
[V:5] E,4D,4 | 
[V:1] z8 | 
[V:2] A2GFG2g2 | 
[V:3] g8 | 
[V:4] d2^cB^c4 | 
[V:5] E,8 | 
[V:1] D4F4 | 
[V:2] f3ed4 | 
[V:3] z8 | 
[V:4] d8 | 
[V:5] D,4z4 | 
[V:1] E3DEFG2- | 
[V:2] c4z4 | 
[V:3] z8 | 
[V:4] z8 | 
[V:5] A,4C4- | 
[V:1] G2FED4 | 
[V:2] z8 | 
[V:3] z8 | 
[V:4] z8 | 
[V:5] C4B,4- | 
[V:1] z4A4 | 
[V:2] d4f4 | 
[V:3] z8 | 
[V:4] z8 | 
[V:5] B,2C2D4 | 
[V:1] c8 | 
[V:2] e6f2 | 
[V:3] z8 | 
[V:4] z8 | 
[V:5] C3B,A,4 | 
[V:1] B3cd4- | 
[V:2] g4d4 | 
[V:3] z8 | 
[V:4] z8 | 
[V:5] G,8 | 
[V:1] d2cBA4- | 
[V:2] f6ed | 
[V:3] d4f4- | 
[V:4] z8 | 
[V:5] z4D,4 | 
[V:1] A4A4- | 
[V:2] c4z2A2 | 
[V:3] f4e4- | 
[V:4] A4c4- | 
[V:5] F,3G,A,4 | 
[V:1] A4B3c | 
[V:2] c4d4 | 
[V:3] e2f2g3f | 
[V:4] c4B4- | 
[V:5] A,4G,4- | 
[V:1] d8 | 
[V:2] G4B2A2 | 
[V:3] d2e2f4- | 
[V:4] B2c2d3c | 
[V:5] G,2F,E,D,4- | 
[V:1] z4G4 | 
[V:2] d4G2g2- | 
[V:3] f4e4 | 
[V:4] A2B2c4- | 
[V:5] D,4C,4 | 
[V:1] A4B4 | 
[V:2] g2f2g4 | 
[V:3] c4d4 | 
[V:4] c4B4 | 
[V:5] F,2A,2G,4 | 
[V:1] c6BA | 
[V:2] e4c4 | 
[V:3] c8 | 
[V:4] G4A4 | 
[V:5] C,4z4 | 
[V:1] B6c2 | 
[V:2] d4e4 | 
[V:3] z8 | 
[V:4] G8 | 
[V:5] z8 | 
[V:1] d3cB2A2- | 
[V:2] d2g4f2- | 
[V:3] z8 | 
[V:4] z8 | 
[V:5] z8 | 
[V:1] AGFED2A2- | 
[V:2] fedcB2A2 | 
[V:3] z8 | 
[V:4] z8 | 
[V:5] D,4D,4 | 
[V:1] AGG4^F2 | 
[V:2] c2B2A4 | 
[V:3] z8 | 
[V:4] z8 | 
[V:5] C,4D,4 | 
[V:1] G4A4 | 
[V:2] G4z4 | 
[V:3] z8 | 
[V:4] z8 | 
[V:5] D4D2C2 | 
[V:1] A4G4 | 
[V:2] z8 | 
[V:3] z8 | 
[V:4] z8 | 
[V:5] D3CB,A,B,2 | 
[V:1] A8 | 
[V:2] z2d2d4 | 
[V:3] z8 | 
[V:4] z8 | 
[V:5] A,2D,3E,F,G, | 
[V:1] c4B2A2 | 
[V:2] c4d4- | 
[V:3] z8 | 
[V:4] z8 | 
[V:5] A,G,A,2G,2F,2 | 
[V:1] B4B4 | 
[V:2] d4f4 | 
[V:3] z8 | 
[V:4] z8 | 
[V:5] G,4D,2D2 | 
[V:1] c4z4 | 
[V:2] e2d2e4 | 
[V:3] g4g4 | 
[V:4] z8 | 
[V:5] C2B,2C4 | 
[V:1] z8 | 
[V:2] d4z2g2 | 
[V:3] f4g4- | 
[V:4] d4d4 | 
[V:5] D4G,4 | 
[V:1] z8 | 
[V:2] e3fg4 | 
[V:3] g4_b4 | 
[V:4] c4d4- | 
[V:5] z4G,4 | 
[V:1] z4z2A2 | 
[V:2] d6c2 | 
[V:3] a2g2a4 | 
[V:4] d4f4 | 
[V:5] F,2G,2D,4 | 
[V:1] B4c4 | 
[V:2] B3AG3A | 
[V:3] g8 | 
[V:4] e2d2e4 | 
[V:5] G,4C,4 | 
[V:1] B4z4 | 
[V:2] Bcd2G3A | 
[V:3] z8 | 
[V:4] d8 | 
[V:5] G,3A,B,CD2- | 
[V:1] d4d4 | 
[V:2] Bcd2G2g2 | 
[V:3] z8 | 
[V:4] z8 | 
[V:5] DCB,A,B,4 | 
[V:1] c4d4- | 
[V:2] a3gfeg2- | 
[V:3] z8 | 
[V:4] z8 | 
[V:5] A,4z4 | 
[V:1] d2e2f4 | 
[V:2] g2fed2a2- | 
[V:3] z8 | 
[V:4] z8 | 
[V:5] z8 | 
[V:1] e2d4^c2 | 
[V:2] agf2e4 | 
[V:3] z8 | 
[V:4] z8 | 
[V:5] z8 | 
[V:1] d3c/B/A2B2- | 
[V:2] z2d2d4 | 
[V:3] z8 | 
[V:4] z8 | 
[V:5] G,4F,2G,2 | 
[V:1] B2c2B3A/G/ | 
[V:2] e4d4 | 
[V:3] g8 | 
[V:4] z8 | 
[V:5] E,3F,G,4 | 
[V:1] A4B4 | 
[V:2] z4z2B2 | 
[V:3] f4g4 | 
[V:4] d8 | 
[V:5] z4G,4 | 
[V:1] A4z2D2- | 
[V:2] c4B4- | 
[V:3] e2f2g4 | 
[V:4] c4d4 | 
[V:5] A,4G,4- | 
[V:1] D2E2F2D2- | 
[V:2] B2AGA2_B2- | 
[V:3] z8 | 
[V:4] B2c2d4 | 
[V:5] G,2F,E,D,2G,2- | 
[V:1] D2^CB,C4 | 
[V:2] BAGFG4 | 
[V:3] g8 | 
[V:4] z8 | 
[V:5] G,F,E,D,E,4 | 
[V:1] D4z4 | 
[V:2] A4B4 | 
[V:3] f4g4 | 
[V:4] d8 | 
[V:5] D,4G,4 | 
[V:1] z8 | 
[V:2] c4B4- | 
[V:3] e2f2g4 | 
[V:4] c4d4 | 
[V:5] A,4G,4- | 
[V:1] d8 | 
[V:2] B2AGA4 | 
[V:3] d4f4- | 
[V:4] B2c2d4 | 
[V:5] G,2F,E,D,4 | 
[V:1] c3BA2G2 | 
[V:2] z2c3de2 | 
[V:3] f4e4 | 
[V:4] A4c4- | 
[V:5] F,3G,A,B,C2 | 
[V:1] A4B2G2- | 
[V:2] f4g3f | 
[V:3] c4d4 | 
[V:4] c4B4 | 
[V:5] F,2A,2G,4 | 
[V:1] G2^FEF4 | 
[V:2] e2c2d4 | 
[V:3] c4z4 | 
[V:4] G4A4 | 
[V:5] C,2E,2D,4 | 
[V:1] G4d4 | 
[V:2] B2d4cB | 
[V:3] d4f4- | 
[V:4] G4z4 | 
[V:5] z4D,4 | 
[V:1] c3BA2G2 | 
[V:2] A2c3de2 | 
[V:3] f4e4 | 
[V:4] A4c4- | 
[V:5] F,3G,A,B,C2 | 
[V:1] A4B2G2- | 
[V:2] f2e2g4 | 
[V:3] c4d4 | 
[V:4] c4B4 | 
[V:5] F,2A,2G,4 | 
[V:1] G2^FEF4 | 
[V:2] e2c2d4- | 
[V:3] c4z2A2 | 
[V:4] G4A4 | 
[V:5] C,2E,2D,4 | 
[V:1] G8- | 
[V:2] d4B3c | 
[V:3] B3cd4 | 
[V:4] G8- | 
[V:5] G,8- | 
[V:1] G8 |]  
[V:2] d8 |]  
[V:3] !fermata!B8 |]  
[V:4] G8 |]  
[V:5] G,8 |]  



